assets/midi/original.svg

<svg viewBox="0 0 24 24" xmlns="http://www.w3.org/2000/svg"><path d="m21.775 7.517h2.225v8.966h-2.225zm-8.562 0h6.506c.66 0 1.045.57 1.045 1.247v6.607c0 .84-.35 1.112-1.112 1.112h-6.439v-5.696h2.225v3.505h3.135v-4.752h-5.36zm-3.235 0h2.19v8.966h-2.19zm-9.978 0h7.854c.66 0 1.045.57 1.045 1.247v7.72h-2.191v-6.71h-1.281v6.708h-1.989v-6.707h-1.247v6.708h-2.191z"/></svg>

<svg xmlns="http://www.w3.org/2000/svg" viewBox="0 0 24 24"><title>MIDI</title><path d="M21.775 7.517H24v8.966h-2.225zm-8.562 0h6.506c.66 0 1.045.57 1.045 1.247v6.607c0 .84-.35 1.112-1.112 1.112h-6.439v-5.696h2.225v3.505h3.135V9.54h-5.36zm-3.235 0h2.19v8.966h-2.19zM0 7.517h7.854c.66 0 1.045.57 1.045 1.247v7.72H6.708v-6.71H5.427v6.708H3.438V9.775H2.191v6.708H0Z"/></svg>
